X:1
T:THE FLYING DUTCHMAN GALOP.
T:THE FLYING DUTCHMAN GALOP.
T:1871                                                                                                                            HENRY EIKMEIER, Op. 43.
C:HENRY EIKMEIER, Op. 43.
%%score { ( 1 3 ) | ( 2 4 ) }
L:1/8
Q:1/4=144
M:2/4
K:Eb
V:1 treble nm="Piano" snm="Pno."
V:3 treble 
V:2 bass 
V:4 bass 
V:1
!mf!"^Allegro" (b/g/e/B/)"_leggiero" [Gg]2 | (b/a/d/B/) [Aa]2 | (b/a/f/B/) [Ff]2 | %3
 (c'/^f/e/c/) [Bb]2 |!f!"_accel." .e(f/e/) (de) | f2 (ga) | (.be'/g'/) !^!b'2 | (Bd/f/) b2 | %8
"_rit." (B!mf!d/f/"_legato" .b) x | !arpeggio!!^![Ae^fc']2 !arpeggio![Begb]2 | %10
[Q:1/4=144]"^Allegro brilliante." !^![Gg]2 [Ff][Ee] | !^![Dd]2 [Cc]2 | .c((f/a/ .c')) x | %13
 !arpeggio!!^![dfad']2 !arpeggio![cfac']2 | !^![cac']2 [Beg]2 | (.B!f!e/g/ .b) x | %16
 !arpeggio![cefc']2 !arpeggio![Begb]2 | [Gg]2 [Ff][=E=e] | !^![Bb]2 [Aa]2 | !^![Aa]2 [gg'][ff'] | %20
"_brill." !arpeggio!!^![egbg']B/c/ d/e/f/g/ | .!^!af/g/ a/b/e'/f'/ | %22
 .g'2!8va(! !arpeggio![e'g'b'g'']2!8va)! |][K:Bb]!f! (!^!d/D/F/B/"_decis. e sempre legato" dg) | %24
 (!^!f/F/B/d/ fb) | (!^!a/c/d/f/ ac') | !^![cc']2 z2 |!mf!"_con grazia" !^!f2 e'>d' | e2 (d'>c') | %29
 (d>c') (bg) | f2 z2 |!f! (!^!d/D/F/B/ dg) | (!^!f/F/B/d/ fb) | (!^!a/c/d/e/ ac') | !^![ee']2 z2 | %35
 (f<d')"_scherz." (f<d') | (d<f) (F<d) |!f! E"_decis."E EE | [DB]2 [DB]2 |] %39
[K:Eb]!mf! (.Be/g/"_legato" .b) x | !arpeggio!!^![Aefc']2 !arpeggio![Begb]2 | !^![Gg]2 [Ff][Ee] | %42
 !^![Dd]2 [Cc]2 | (.cf/a/ .c').[cc'] | !arpeggio!!^![dfad']2 !arpeggio!!^![cfac']2 | %45
 !^![cac']2 [Bb][Ff] | !^![cfa]2 [Geg]2 | Be/!f!g/ b x | !arpeggio!!^![ce^fc']2 !arpeggio![Begb]2 | %49
 !^![Gg]2 [Ff][=E=e] | !^![Bb]2 [Aa]2 | !^![Aa]2 [gg'][ff'] | !arpeggio!.!^![egbe']B/c/ d/e/f/g/ | %53
 .!^!af/g/ a/b/c'/d'/ | e'2!8va(! !^![e'g'b'e'']2!8va)! |] %55
[K:Ab] (e'/!mf!c'/"_leggieriss."a/e/) [cc']2 | (e'/d'/g/e/) [ed']2 | (g'/e'/b/g/) [ff']2 | %58
 (f'/c'/a/e/-) [ee']2 |!f! !^![Aa]2 [Gg][Aa] | [cc']2 [Bb]2 | [Bb]2 [=A=a][Bb] | [ff']2 [ee']2 | %63
!mf! (e'/c'/"_leggiero."a/e/) [cc']2 | (e'/d'/g/e/) [dd']2 | (e'/c'/b/g/) [ff']2 | %66
 (f'/c'/a/e/) [ee']2 |!f!!<(! !^![cc']2"_martellato" !^![=A=a]2 | !^![Bb]2 !^![=B=b]2!<)! | %69
"_brill."!<(! (c'/d'/=d'/e'/ =e'/f'/^f'/g'/)!<)! | a'2!8va(! !arpeggio![a'c''a'']2!8va)! || %71
 !^![af'a']2 [ge'g'][fd'f'] | !^![fd'f']2 [ec'e']2 |!mf! (e'/"_scherz."d'/g/e/)"_leggiero" [dd']2 | %74
 (d'/a/c/A/) [cc']2 | !^![dbd']2 [cac'][Bbd'] | !^![Bgb]2 [Afa]2 | (b/"_cresc."f/B/G/) [=B=b]2 | %78
 (!^![cc']/g/=e/c/-) c2 |!mf! !^![af'a']2"_a tempo" [ge'g'][fd'f'] | !^![dbd']2 [cac']2 | %81
 (g'/f'/g/e/) [dd']2 | (d'/a/e/c/-) [cc']2 | !^![dbd']2 [cac'][Bgb] | !^![Bgb]2 [Afa]2 | %85
 a/f/=d/A/ .[Gg].[Ff] | [Ee]2 !^![ee']2 ||!mf! (e'/c'/a/e/) [cc']2 | (e'/d'/g/e/) [dd']2 | %89
 (g'/e'/d'/g/) [ff']2 | (f'/d'/a/e/) [ee']2 |!f! !^![Aa]2 [Gg][Aa] | !^![cc']2 [Bb]2 | %93
 !^![Bb]2 [=A=a][Bb] | !^![ff']2 [ee']2 |!mf! (e'/c'/a/e/)"_leggiero" [ee']2 | %96
 (e'/d'/g/e/) [ee']2 | (g'/e'/d'/g/) [ff']2 | (f'/d'/a/e/) [ee']2 | %99
!f! !^![Aa]2"_martellato" !^![=A=a]2 |!<(! !^![Bb]2 !^![=B=b]2 | %101
"_brill." (c'/d'/=d'/e'/ =e'/f'/^f'/g'/)!<)! | a'2!8va(! [a'c''a'']2!8va)! |] %103
[K:Eb] z/"^CODA." (B/!mf!e/g/"_legato" .d').[dd'] | !arpeggio!!^![ce^fc']2 !arpeggio![Begb]2 | %105
 !^![Gg]2 [Ff][Ee] | !^![Dd]2 [Cc]2 | z/ (c/f/a/) .c'.[cc'] | %108
 !arpeggio!!^![dfad']2 !arpeggio![cfac']2 | !^![cac']2 [Bb][Ff] | !^![Afa]2 [Geg]2 | %111
!f! z/"_cresc." B/"_con fuoco"e/g/ !^![Bb]2 | z/"_cen  -  -      do" c/e/a/ !^![cc']2 | %113
 z/ d/f/a/ !^![dd']2 | !^![ff']2 [ee']2- |"_brill." !^![ee']f/=e/"_legato" f/g/a/c'/ | %116
 !^!d'B/c/ d/e/f/g/ | !^!a(f/g/) (a/b/c'/d'/) | ((e'/b/g/"_leggiero"e/)) [Bgb]2 | %119
 (d'/b/a/d/) [Bab]2 |"_cresc." (e'/b/g/e/) (e'/b/g/e/) | %121
"_cen           -            -    -                    -             do" (d'/b/a/B/) (d'/b/a/B/) | %122
 !arpeggio![egbe']!ff!!arpeggio![fabd'] !arpeggio![egbe']!arpeggio![fbd'f'] | %123
 !arpeggio![gbe'g']2 !arpeggio![fad'f']2 | !arpeggio![egbe']4!fine! |] %125
V:2
!ped! !>![E,,E,]2 (E/B,/G,/E,/)!ped-up! |!ped! !>![F,,F,]2 (D/B,/A,/F,/) | %2
 !>![B,,,B,,]2 (A,/F,/D,/B,,/)!ped-up! |!ped! !>![E,,E,]2 (E/B,/G,/E,/)!ped-up! | %4
 G,,[G,B,E] [G,B,E][G,B,E] | A,,[A,CF] [A,CF][A,CF] | B,,[B,EG] [B,EG]2 | %7
 [B,,,B,,][A,B,FA]"_attacca subito." [A,B,FA]2 |!ped! [E,,E,][B,EG] G,[B,E] | %9
 [E,,E,][=A,CE] G,[B,E] | [E,,E,][G,B,E] G,,[G,B,]!ped-up! |!ped! [A,,,A,,][F,A,] E,[F,A,] | %12
 [F,,F,][CF] A,[CF] | [B,,,B,,][A,B,FA] [A,B,FA][A,B,F]!ped-up! | [E,,E,][G,B,E] [G,B,E]2 | %15
!ped! [E,,E,][G,EF] G,[B,E] | [E,,E,][=A,CE] G,[B,E]!ped-up! | [C,,C,][G,B,C] [G,B,C][G,B,C] | %18
 [F,,F,][A,CF] [A,CF][A,CF] | [A,,,A,,][A,_CF] [A,CF][A,CF] | %20
!ped! [B,,,B,,][G,B,E] [G,B,E][G,B,E]!ped-up! | %21
!ped! [B,,,B,,][F,A,B,F] [F,A,B,F][F,A,B,F]!ped-up! | !arpeggio![E,G,B,E]2 !^![E,,E,]2 |] %23
[K:Bb]!ped! [B,,,B,,][B,D] F,[B,D] | [D,,D,][B,D] F,[B,D]!ped-up! |!ped! [C,,C,][A,E] F,[A,E] | %26
 [F,,F,][A,CE] !>!_G,[A,CE]!ped-up! |!ped! !^!F,[A,CE] !^!C,[F,A,E] | %28
 !^!A,,[F,A,E] !^!F,,[F,A,E]!ped-up! |!ped! !^!A,,[F,A,E] !^!F,,[F,A,E] | B,,[B,D] G,[B,^C] | %31
 [B,,,B,,][B,D] F,[B,D] | [D,,D,][B,D] F,[B,D]!ped-up! |!ped! [F,,F,][A,CE] F,[A,CE] | %34
 [_A,,_A,][=A,CE] _A,[=A,CE]!ped-up! |!ped! [F,,F,][B,D] F,[B,D] | D,[B,D] B,,[F,B,D]!ped-up! | %37
 .[F,,F,].[F,A,] .[F,A,].[F,A,] | [B,,F,B,]2 [B,,F,_A,]2 |][K:Eb]!ped! [E,,E,][A,EG] G,[B,E] | %40
 [E,,E,][=A,CE] G,[B,E] | [E,,E,][G,B,E] G,,[G,B,]!ped-up! | [A,,,A,,][F,A,] C,[F,A,] | %43
!ped! [F,,F,][CF] A,[CF] | A,,[CF] A,[CF]!ped-up! | [B,,,B,,][A,B,FA] [A,B,FA][A,B,F] | %46
 [E,,E,][G,B,E] [G,B,E]2 |!ped! [E,,E,][B,EG] G,[B,E] | [E,,E,][=A,CE] G,[B,E]!ped-up! | %49
 !>![C,,C,][G,B,C] [G,B,C][G,B,C] | [F,,F,][A,_CF] [A,CF][A,CF] | [A,,,A,,][A,_CF] [A,CF][A,CF] | %52
 x [G,B,E] [G,B,E][G,B,E] |!ped! x [=E,A,B,D] [E,A,B,D][E,A,B,D]!ped-up! | %54
 !arpeggio![E,G,B,E]2 [E,,E,]2 |][K:Ab]!ped! [A,,,A,,]2 (E/C/A,/E,/)!ped-up! | %56
 [B,,,B,,]2 (E/D/B,/G,/) | !>![E,,E,]2 (D/B,/G,/E,/) |!ped! !>![A,,,A,,]2 (E/C/A,/E,/)!ped-up! | %59
 x [E,A,C] [E,A,C][E,A,C] | [=D,,=D,][F,A,B,F] [F,A,B,F][F,A,B,F] | %61
 [E,,E,][E,G,B,_F] [E,G,B,F][E,G,B,F] | A,,[E,A,C] [E,A,C]2 | %63
!ped! [A,,,A,,]2 (E/C/A,/E,/)!ped-up! |!ped! [B,,,B,,]2 (E/D/B,/G,/)!ped-up! | %65
 [E,,E,]2 (D/B,/G,/E,/) |!ped! [A,,,A,,]2 (E/C/A,/E,/)!ped-up! | B,,[E,A,] C,[E,_G,=A,] | %68
 D,[F,B,] =D,[F,A,=B,] | [C,A,C]2 [E,G,D]E,, | [A,C]2 [A,,A,]2 || [=D,,=D,][F,DF] [F,DF][F,DF] | %72
 [A,,,A,,][E,A,C] [E,A,C][E,A,C] |!ped! !>![E,,E,]2 (D/B,/G,/E,/)!ped-up! | %74
!ped! [C,,C,]2 (E/C/A,/E,/)!ped-up! | [C,,C,][G,B,C=E] [G,B,CE][G,B,CE] | %76
 [F,,F,][A,CF] [A,CF][A,CF] |!ped! [D,,D,]2 (D/A,/F,/D,/)!ped-up! | [C,,C,]2 [=E,G,C]2 | %79
 [D,,D,][A,DF] [A,DF][A,DF] | [A,,,A,,][E,A,C] [E,A,C][E,A,C] | %81
!ped! [E,,E,]2 (D/B,/G,/E,/)!ped-up! |!ped! [C,,C,]2 E/C/A,/E,/!ped-up! | %83
 [C,,C,][G,B,C=E] [G,B,CE][G,B,CE] | [F,,F,][A,CF] [A,CF][A,CF] | [B,,,B,,]2 (=D/B,/A,/F,/) | %86
 [E,,E,]2 [E,G,B,_D]2 ||!ped! [A,,,A,,]2 (E/C/A,/E,/)!ped-up! | %88
!ped! [B,,,B,,]2 (E/D/B,/G,/)!ped-up! | [E,,E,]2 (D/B,/G,/E,/) | %90
!ped! [A,,,A,,]2 (E/C/A,/E,/)!ped-up! | [C,,C,][E,A,C] [E,A,C][E,A,C] | %92
 [=D,,=D,][F,B,D] [F,B,D][F,B,D] | [E,,E,][E,G,B,_F] [E,G,B,F][E,G,B,F] | A,,[E,A,C] [E,A,C]2 | %95
!ped! [A,,,A,,]2 (E/C/A,/E,/)!ped-up! |!ped! [B,,,B,,]2 (E/D/B,/G,/)!ped-up! | %97
 !>![E,,E,]2 (D/B,/G,/E,/) |!ped! !>![A,,,A,,]2 (E/C/A,/E,/)!ped-up! | C,[E,A,] C,[E,_G,=A,] | %100
 D,[F,B,] =D,[F,A,=B,] | [C,A,C]2 [E,G,D]E,, | [A,C]2 !>![A,,A,]2 |] %103
[K:Eb] [E,,E,]!ped!!ped-up![B,EG] G,[B,E] | [E,,E,][=A,CE] G,[B,E] | [E,,E,][G,B,E] G,,[G,B,] | %106
 [A,,,A,,][G,B,] C,[G,B,] | [F,,F,][CF] A,[CF] | A,,[CF] A,[CF] | %109
 [B,,,B,,][A,B,DF] [A,B,DF][A,B,D] | [E,,E,][G,B,E] [G,B,E]2 | G,,2 [G,B,E]2 | A,,2 [E,A,C]2 | %113
 [=B,,,=B,,]2 [F,A,B,D]2 | [C,,C,][E,G,C] [E,G,C][E,G,C] | [A,,,A,,][A,CF] [A,CF][A,CF] | %116
 [B,,,B,,][G,B,E] [G,B,E][G,B,E] | [B,,,B,,][F,A,B,D] [F,A,B,D][F,A,B,D] | %118
!ped! [E,,E,]2!ped-up! E/B,/G,/E,/ |!ped! [B,,,B,,]2 (D/B,/A,/F,/)!ped-up! | %120
!ped! !^![E,,E,]2 !^![B,,,B,,]2!ped-up! |!ped! !^![D,,D,]2 !^![B,,,B,,]2!ped-up! | %122
 !^![E,,E,]!^![B,,,B,,] !^![E,,E,]!^![B,,,B,,] | [E,,E,]2 [B,,,B,,]2 | E,,4 |] %125
V:3
 x4 | x4 | x4 | x4 | x4 | x4 | x4 | x4 | x3 .[Bb] | x4 | x4 | x4 | x3 .[cc'] | x4 | x4 | x3 .[Bb] | %16
 x4 | x4 | x4 | x4 | x4 | x4 | x2!8va(! x2!8va)! |][K:Bb] x4 | x4 | x4 | x4 | x4 | x4 | x4 | x4 | %31
 x4 | x4 | x4 | x4 | x4 | x4 | d/c/d/c/ dc | x4 |][K:Eb] x3 .[Bb] | x4 | x4 | x4 | x4 | x4 | x4 | %46
 x4 | x3 [Bb] | x4 | x4 | x4 | x4 | x4 | x4 | x2!8va(! x2!8va)! |][K:Ab] x4 | x4 | x4 | x4 | x4 | %60
 x4 | x4 | x4 | x4 | x4 | x4 | x4 | x4 | x4 | x4 | x2!8va(! x2!8va)! || x4 | x4 | x4 | x4 | x4 | %76
 x4 | x4 | x4 | x4 | x4 | x4 | x4 | x4 | x4 | x4 | x4 || x4 | x4 | x4 | x4 | x4 | x4 | x4 | x4 | %95
 x4 | x4 | x4 | x4 | x4 | x4 | x4 | x2!8va(! x2!8va)! |][K:Eb] x4 | x4 | x4 | x4 | x4 | x4 | x4 | %110
 x4 | x4 | x4 | x4 | x4 | x4 | x4 | x4 | x4 | x4 | x4 | x4 | x4 | x4 | x4 |] %125
V:4
 x4 | x4 | x4 | x4 | x4 | x4 | x4 | x4 | x4 | x4 | x4 | x4 | x4 | x4 | x4 | x4 | x4 | x4 | x4 | %19
 x4 | x4 | x4 | x4 |][K:Bb] x4 | x4 | x4 | x4 | x4 | x4 | x4 | x4 | x4 | x4 | x4 | x4 | x4 | x4 | %37
 x4 | x4 |][K:Eb] x4 | x4 | x4 | x4 | x4 | x4 | x4 | x4 | x4 | x4 | x4 | x4 | x4 | [B,,,B,,] x3 | %53
 [B,,,B,,] x3 | x4 |][K:Ab] x4 | x4 | x4 | x4 | [E,,E,] z z2 | x4 | x4 | x4 | x4 | x4 | x4 | x4 | %67
 x4 | x4 | x4 | x4 || x4 | x4 | x4 | x4 | x4 | x4 | x4 | x4 | x4 | x4 | x4 | x4 | x4 | x4 | x4 | %86
 x4 || x4 | x4 | x4 | x4 | x4 | x4 | x4 | x4 | x4 | x4 | x4 | x4 | x4 | x4 | x4 | x4 |][K:Eb] x4 | %104
 x4 | x4 | x4 | x4 | x4 | x4 | x4 | x4 | x4 | x4 | x4 | x4 | x4 | x4 | x4 | x4 | x4 | x4 | x4 | %123
 x4 | x4 |] %125

